dist/whatsapp.svg

<svg xmlns="http://www.w3.org/2000/svg" width="24" height="25" viewBox="0 0 24 25" fill="none">
  <path d="M0.51209 11.9486C0.511527 13.9808 1.04253 15.9651 2.05221 17.7141L0.415527 23.69L6.53103 22.0865C8.2225 23.0073 10.1177 23.4898 12.0435 23.4899H12.0486C18.4062 23.4899 23.5815 18.3165 23.5842 11.9577C23.5855 8.87643 22.3866 5.97899 20.2084 3.79912C18.0306 1.61943 15.1342 0.418398 12.0481 0.416992C5.68972 0.416992 0.514809 5.59012 0.512184 11.9486" fill="url(#paint0_linear_444_864)"/>
  <path d="M0.100313 11.9452C0.0996563 14.0506 0.649687 16.1059 1.69537 17.9175L0 24.1075L6.33478 22.4466C8.08022 23.3982 10.0454 23.9 12.0451 23.9007H12.0502C18.636 23.9007 23.9972 18.5412 24 11.9548C24.0011 8.76281 22.7591 5.76122 20.5031 3.50325C18.2468 1.24556 15.2468 0.0013125 12.0502 0C5.46337 0 0.102938 5.35875 0.100313 11.9452ZM3.87291 17.6055L3.63637 17.23C2.64206 15.649 2.11725 13.822 2.118 11.946C2.12006 6.47147 6.57544 2.0175 12.054 2.0175C14.7071 2.01863 17.2005 3.05288 19.0759 4.92938C20.9512 6.80606 21.9831 9.30075 21.9824 11.9541C21.98 17.4286 17.5245 21.8831 12.0502 21.8831H12.0463C10.2638 21.8822 8.51569 21.4035 6.99113 20.4989L6.62831 20.2838L2.86912 21.2693L3.87291 17.6055Z" fill="url(#paint1_linear_444_864)"/>
  <path d="M9.06334 6.95059C8.83965 6.45343 8.60425 6.4434 8.39153 6.43468C8.21734 6.42718 8.01821 6.42774 7.81928 6.42774C7.62015 6.42774 7.29662 6.50265 7.02315 6.80124C6.7494 7.10012 5.97803 7.82237 5.97803 9.29134C5.97803 10.7603 7.048 12.1801 7.19715 12.3795C7.3465 12.5785 9.26275 15.6895 12.2976 16.8863C14.8199 17.8809 15.3332 17.6831 15.8806 17.6332C16.4281 17.5835 17.6472 16.9111 17.8959 16.2139C18.1448 15.5168 18.1448 14.9192 18.0702 14.7944C17.9956 14.67 17.7964 14.5952 17.4978 14.446C17.1992 14.2967 15.7312 13.5743 15.4576 13.4747C15.1838 13.3751 14.9848 13.3254 14.7857 13.6244C14.5865 13.9229 14.0147 14.5952 13.8405 14.7944C13.6664 14.994 13.4921 15.0188 13.1936 14.8695C12.8948 14.7196 11.9332 14.4047 10.7924 13.3876C9.90475 12.5962 9.3055 11.6189 9.13131 11.3199C8.95712 11.0214 9.11265 10.8596 9.26237 10.7108C9.39653 10.577 9.56106 10.3622 9.7105 10.1879C9.85937 10.0135 9.90906 9.88909 10.0086 9.68996C10.1083 9.49065 10.0584 9.31628 9.98387 9.16693C9.90906 9.01759 9.32884 7.54093 9.06334 6.95059Z" fill="white"/>
  <defs>
    <linearGradient id="paint0_linear_444_864" x1="1158.85" y1="2327.71" x2="1158.85" y2="0.416992" gradientUnits="userSpaceOnUse">
      <stop stop-color="#1FAF38"/>
      <stop offset="1" stop-color="#60D669"/>
    </linearGradient>
    <linearGradient id="paint1_linear_444_864" x1="1200" y1="2410.75" x2="1200" y2="0" gradientUnits="userSpaceOnUse">
      <stop stop-color="#F9F9F9"/>
      <stop offset="1" stop-color="white"/>
    </linearGradient>
  </defs>
</svg>

<svg xmlns="http://www.w3.org/2000/svg" width="24" height="25"><path d="M.512 11.949c0 2.032.53 4.016 1.54 5.765L.416 23.69l6.115-1.604a11.5 11.5 0 0 0 5.513 1.404h.005c6.357 0 11.532-5.173 11.535-11.532a11.46 11.46 0 0 0-3.376-8.159 11.46 11.46 0 0 0-8.16-3.382C5.69.417.515 5.59.512 11.949"/><path d="M.1 11.945c0 2.106.55 4.16 1.595 5.973L0 24.108l6.335-1.661a11.94 11.94 0 0 0 5.71 1.454h.005c6.586 0 11.947-5.36 11.95-11.946a11.87 11.87 0 0 0-3.497-8.452A11.88 11.88 0 0 0 12.05 0C5.463 0 .103 5.359.1 11.945m3.773 5.66-.237-.375a9.9 9.9 0 0 1-1.518-5.284c.002-5.475 4.457-9.928 9.936-9.928a9.87 9.87 0 0 1 7.022 2.911 9.87 9.87 0 0 1 2.906 7.025c-.002 5.475-4.457 9.93-9.932 9.93h-.004a9.9 9.9 0 0 1-5.055-1.385l-.363-.215-3.759.985z"/><path d="M9.063 6.95c-.223-.497-.459-.507-.671-.515-.175-.008-.374-.007-.573-.007s-.522.075-.796.373c-.274.3-1.045 1.021-1.045 2.49s1.07 2.89 1.22 3.089c.148.198 2.065 3.31 5.1 4.506 2.522.995 3.035.797 3.583.747.547-.05 1.766-.722 2.015-1.42.249-.696.249-1.294.174-1.419-.074-.124-.274-.199-.572-.348-.299-.15-1.767-.872-2.04-.971-.274-.1-.473-.15-.672.15-.2.298-.771.97-.945 1.17-.175.199-.349.224-.647.075-.3-.15-1.26-.465-2.402-1.482-.887-.792-1.486-1.77-1.66-2.068-.175-.299-.02-.46.13-.61.135-.133.3-.348.448-.522.15-.175.2-.299.299-.498.1-.2.05-.374-.025-.523s-.655-1.626-.92-2.216"/></svg>
